wp-content/uploads/stamp04.svg

<?xml version="1.0" encoding="UTF-8"?> <svg xmlns="http://www.w3.org/2000/svg" width="187" height="23" viewBox="0 0 187 23" fill="none"><rect width="187" height="23" rx="5" fill="#032538"></rect><path d="M11.552 14.92V13.576L17.76 11.496V11.304L11.552 9.224V7.88L18.24 10.184V12.616L11.552 14.92ZM30.9858 5.8H32.3298V15.752H38.1858V17H30.9858V5.8ZM40.8946 5.8H47.6786V7.048H42.2386V10.76H47.5826V12.008H42.2386V15.752H47.7746V17H40.8946V5.8ZM56.4835 14.216H51.6835L50.8675 17H49.4275L52.8195 5.8H55.3475L58.7395 17H57.2995L56.4835 14.216ZM53.9875 6.376L52.0515 12.968H56.1155L54.1795 6.376H53.9875ZM60.1524 5.8H63.8324C65.219 5.8 66.2324 6.13067 66.8724 6.792C67.5124 7.45333 67.8324 8.50933 67.8324 9.96V12.84C67.8324 14.2907 67.5124 15.3467 66.8724 16.008C66.2324 16.6693 65.219 17 63.8324 17H60.1524V15.736H61.1124V7.048H60.1524V5.8ZM63.6404 15.752C64.131 15.752 64.5524 15.704 64.9044 15.608C65.267 15.512 65.5657 15.352 65.8004 15.128C66.035 14.8933 66.2057 14.584 66.3124 14.2C66.4297 13.816 66.4884 13.3307 66.4884 12.744V10.056C66.4884 9.46933 66.4297 8.984 66.3124 8.6C66.2057 8.216 66.035 7.912 65.8004 7.688C65.5657 7.45333 65.267 7.288 64.9044 7.192C64.5524 7.096 64.131 7.048 63.6404 7.048H62.4564V15.752H63.6404ZM71.2773 12.264H76.0773V13.416H71.2773V12.264ZM82.4021 11.624H87.3941V17H86.1461V15.656H85.9541C85.7728 16.1253 85.4528 16.504 84.9941 16.792C84.5355 17.08 84.0021 17.224 83.3941 17.224C82.1888 17.224 81.2395 16.8347 80.5461 16.056C79.8635 15.2773 79.5221 14.1413 79.5221 12.648V10.152C79.5221 8.70133 79.8688 7.576 80.5621 6.776C81.2555 5.976 82.2208 5.576 83.4581 5.576C84.0981 5.576 84.6635 5.68267 85.1541 5.896C85.6448 6.09867 86.0555 6.38667 86.3861 6.76C86.7168 7.12267 86.9675 7.55467 87.1381 8.056C87.3088 8.54667 87.3941 9.07467 87.3941 9.64V9.832H86.0501V9.64C86.0501 9.27733 85.9968 8.92533 85.8901 8.584C85.7941 8.24267 85.6395 7.944 85.4261 7.688C85.2235 7.42133 84.9568 7.21333 84.6261 7.064C84.3061 6.904 83.9168 6.824 83.4581 6.824C82.5941 6.824 81.9435 7.13867 81.5061 7.768C81.0795 8.39733 80.8661 9.224 80.8661 10.248V12.552C80.8661 13.6507 81.0795 14.4987 81.5061 15.096C81.9435 15.6827 82.6048 15.976 83.4901 15.976C84.2901 15.976 84.9141 15.72 85.3621 15.208C85.8208 14.696 86.0501 13.9813 86.0501 13.064V12.872H82.4021V11.624ZM89.879 5.8H96.663V7.048H91.223V10.76H96.567V12.008H91.223V15.752H96.759V17H89.879V5.8ZM105.26 16.424H105.452V5.8H106.796V17H104.108L100.876 6.376H100.684V17H99.3399V5.8H102.028L105.26 16.424ZM109.473 5.8H116.257V7.048H110.817V10.76H116.161V12.008H110.817V15.752H116.353V17H109.473V5.8ZM126.166 17H124.822V13.256C124.822 12.9787 124.758 12.7653 124.63 12.616C124.502 12.4667 124.278 12.392 123.958 12.392H120.47V17H119.126V5.8H123.126C123.702 5.8 124.203 5.88533 124.63 6.056C125.056 6.216 125.408 6.43467 125.686 6.712C125.974 6.98933 126.187 7.31467 126.326 7.688C126.475 8.05067 126.55 8.43467 126.55 8.84V9.32C126.55 9.736 126.432 10.152 126.198 10.568C125.974 10.984 125.622 11.304 125.142 11.528V11.72C125.462 11.7733 125.712 11.9013 125.894 12.104C126.075 12.3067 126.166 12.5947 126.166 12.968V17ZM120.47 11.144H122.966C123.723 11.144 124.283 10.984 124.646 10.664C125.019 10.3333 125.206 9.85333 125.206 9.224V8.936C125.206 8.37067 125.019 7.91733 124.646 7.576C124.283 7.224 123.723 7.048 122.966 7.048H120.47V11.144ZM134.859 14.216H130.059L129.243 17H127.803L131.195 5.8H133.723L137.115 17H135.675L134.859 14.216ZM132.363 6.376L130.427 12.968H134.491L132.555 6.376H132.363ZM138.319 5.8H146.191V7.048H142.927V17H141.583V7.048H138.319V5.8ZM148.5 5.8H155.604V7.048H152.724V15.752H155.604V17H148.5V15.752H151.38V7.048H148.5V5.8ZM164.041 16.424H164.233V5.8H165.577V17H162.889L159.657 6.376H159.465V17H158.121V5.8H160.809L164.041 16.424ZM170.574 11.624H175.566V17H174.318V15.656H174.126C173.945 16.1253 173.625 16.504 173.166 16.792C172.707 17.08 172.174 17.224 171.566 17.224C170.361 17.224 169.411 16.8347 168.718 16.056C168.035 15.2773 167.694 14.1413 167.694 12.648V10.152C167.694 8.70133 168.041 7.576 168.734 6.776C169.427 5.976 170.393 5.576 171.63 5.576C172.27 5.576 172.835 5.68267 173.326 5.896C173.817 6.09867 174.227 6.38667 174.558 6.76C174.889 7.12267 175.139 7.55467 175.31 8.056C175.481 8.54667 175.566 9.07467 175.566 9.64V9.832H174.222V9.64C174.222 9.27733 174.169 8.92533 174.062 8.584C173.966 8.24267 173.811 7.944 173.598 7.688C173.395 7.42133 173.129 7.21333 172.798 7.064C172.478 6.904 172.089 6.824 171.63 6.824C170.766 6.824 170.115 7.13867 169.678 7.768C169.251 8.39733 169.038 9.224 169.038 10.248V12.552C169.038 13.6507 169.251 14.4987 169.678 15.096C170.115 15.6827 170.777 15.976 171.662 15.976C172.462 15.976 173.086 15.72 173.534 15.208C173.993 14.696 174.222 13.9813 174.222 13.064V12.872H170.574V11.624Z" fill="#90EAE1"></path></svg>

<svg xmlns="http://www.w3.org/2000/svg" width="187" height="23" fill="none"><rect width="187" height="23" fill="#032538" rx="5"/><path fill="#90EAE1" d="M11.552 14.92v-1.344l6.208-2.08v-.192l-6.208-2.08V7.88l6.688 2.304v2.432l-6.688 2.304ZM30.986 5.8h1.344v9.952h5.856V17h-7.2V5.8Zm9.909 0h6.784v1.248h-5.44v3.712h5.344v1.248h-5.344v3.744h5.536V17h-6.88V5.8Zm15.588 8.416h-4.8L50.867 17h-1.44L52.82 5.8h2.528L58.74 17H57.3l-.816-2.784Zm-2.495-7.84-1.937 6.592h4.064L54.18 6.376h-.192Zm6.164-.576h3.68c1.387 0 2.4.33 3.04.992.64.661.96 1.717.96 3.168v2.88c0 1.45-.32 2.507-.96 3.168-.64.661-1.653.992-3.04.992h-3.68v-1.264h.96V7.048h-.96V5.8Zm3.488 9.952c.491 0 .912-.048 1.264-.144.363-.096.662-.256.896-.48.235-.235.406-.544.512-.928.118-.384.176-.87.176-1.456v-2.688c0-.587-.058-1.072-.176-1.456-.106-.384-.277-.688-.512-.912a1.94 1.94 0 0 0-.896-.496 4.85 4.85 0 0 0-1.264-.144h-1.184v8.704h1.184Zm7.637-3.488h4.8v1.152h-4.8v-1.152Zm11.125-.64h4.992V17h-1.248v-1.344h-.192c-.181.47-.501.848-.96 1.136-.459.288-.992.432-1.6.432-1.205 0-2.154-.39-2.848-1.168-.683-.779-1.024-1.915-1.024-3.408v-2.496c0-1.45.347-2.576 1.04-3.376.694-.8 1.659-1.2 2.896-1.2.64 0 1.206.107 1.696.32a3.3 3.3 0 0 1 1.232.864c.33.363.582.795.752 1.296.17.49.256 1.019.256 1.584v.192H86.05V9.64c0-.363-.053-.715-.16-1.056a2.391 2.391 0 0 0-.464-.896 2.034 2.034 0 0 0-.8-.624c-.32-.16-.71-.24-1.168-.24-.864 0-1.514.315-1.952.944-.427.63-.64 1.456-.64 2.48v2.304c0 1.099.213 1.947.64 2.544.438.587 1.099.88 1.984.88.8 0 1.424-.256 1.872-.768.459-.512.688-1.227.688-2.144v-.192h-3.648v-1.248ZM89.88 5.8h6.784v1.248h-5.44v3.712h5.344v1.248h-5.344v3.744h5.536V17h-6.88V5.8Zm15.381 10.624h.192V5.8h1.344V17h-2.688l-3.232-10.624h-.192V17H99.34V5.8h2.688l3.232 10.624ZM109.473 5.8h6.784v1.248h-5.44v3.712h5.344v1.248h-5.344v3.744h5.536V17h-6.88V5.8ZM126.166 17h-1.344v-3.744c0-.277-.064-.49-.192-.64-.128-.15-.352-.224-.672-.224h-3.488V17h-1.344V5.8h4c.576 0 1.077.085 1.504.256.426.16.778.379 1.056.656.288.277.501.603.64.976.149.363.224.747.224 1.152v.48c0 .416-.118.832-.352 1.248-.224.416-.576.736-1.056.96v.192c.32.053.57.181.752.384.181.203.272.49.272.864V17Zm-5.696-5.856h2.496c.757 0 1.317-.16 1.68-.48.373-.33.56-.81.56-1.44v-.288c0-.565-.187-1.019-.56-1.36-.363-.352-.923-.528-1.68-.528h-2.496v4.096Zm14.389 3.072h-4.8L129.243 17h-1.44l3.392-11.2h2.528l3.392 11.2h-1.44l-.816-2.784Zm-2.496-7.84-1.936 6.592h4.064l-1.936-6.592h-.192Zm5.956-.576h7.872v1.248h-3.264V17h-1.344V7.048h-3.264V5.8Zm10.181 0h7.104v1.248h-2.88v8.704h2.88V17H148.5v-1.248h2.88V7.048h-2.88V5.8Zm15.541 10.624h.192V5.8h1.344V17h-2.688l-3.232-10.624h-.192V17h-1.344V5.8h2.688l3.232 10.624Zm6.533-4.8h4.992V17h-1.248v-1.344h-.192a2.3 2.3 0 0 1-.96 1.136c-.459.288-.992.432-1.6.432-1.205 0-2.155-.39-2.848-1.168-.683-.779-1.024-1.915-1.024-3.408v-2.496c0-1.45.347-2.576 1.04-3.376.693-.8 1.659-1.2 2.896-1.2.64 0 1.205.107 1.696.32.491.203.901.49 1.232.864.331.363.581.795.752 1.296a4.78 4.78 0 0 1 .256 1.584v.192h-1.344V9.64a3.51 3.51 0 0 0-.16-1.056 2.397 2.397 0 0 0-.464-.896 2.035 2.035 0 0 0-.8-.624c-.32-.16-.709-.24-1.168-.24-.864 0-1.515.315-1.952.944-.427.63-.64 1.456-.64 2.48v2.304c0 1.099.213 1.947.64 2.544.437.587 1.099.88 1.984.88.8 0 1.424-.256 1.872-.768.459-.512.688-1.227.688-2.144v-.192h-3.648v-1.248Z"/></svg>
